src/assets/floor-20.svg

<?xml version="1.0" encoding="utf-8"?>
<!-- Generator: Adobe Illustrator 20.1.0, SVG Export Plug-In . SVG Version: 6.00 Build 0)  -->
<svg version="1.1" id="Layer_1" xmlns="http://www.w3.org/2000/svg" xmlns:xlink="http://www.w3.org/1999/xlink" x="0px" y="0px"
	 viewBox="0 0 160 162" style="enable-background:new 0 0 160 162;" xml:space="preserve">
<title>floor-14</title>
<g id="Assets">
	<g id="floor-14">
		<g id="Page-1">
			<path id="Fill-1" style="fill:#DCDCDC;" d="M2,9h22.814v2.383h10.058V9H58v7.037H34.808V18H24.94v-2.083H2.06L2,9z"/>
			<g id="Group-8">
				<path id="Stroke-2" style="fill:none;stroke:#F6F6F6;stroke-width:4;" d="M25.032,160L24.592,6.952H12.95"/>
				<path id="Stroke-4" style="fill:none;stroke:#F6F6F6;stroke-width:4;" d="M58.068,160H34.283L35.227,6.952h14.346"/>
				<path id="Stroke-6" style="fill:none;stroke:#EAEAEA;stroke-width:4;" d="M2.002,6.952h13.215v-5.29h29.826v5.29h13.025V160
					H34.283v-3.4h-9.25v3.4H2.19L2.002,6.952z"/>
			</g>
		</g>
		<path id="Rectangle" style="fill:#EAEAEA;" d="M36,162h124v-4H36V162z"/>
	</g>
</g>
</svg>

<svg id="Layer_1" data-name="Layer 1" xmlns="http://www.w3.org/2000/svg" viewBox="0 0 160 162.34"><defs><style>.cls-1{fill:#dcdcdc;}.cls-2,.cls-3{fill:none;stroke-width:4px;}.cls-2{stroke:#f6f6f6;}.cls-3{stroke:#eaeaea;}.cls-4{fill:#eaeaea;}</style></defs><title>floor-20</title><g id="Assets"><g id="floor-14"><g id="Page-1"><path id="Fill-1" class="cls-1" d="M2,9H24.81v2.38H34.87V9H58v7H34.81v2H24.94V15.92H2.06Z" transform="translate(0 0.34)"/><g id="Group-8"><path id="Stroke-2" class="cls-2" d="M25,160,24.59,7H12.95" transform="translate(0 0.34)"/><path id="Stroke-4" class="cls-2" d="M58.07,160H34.28L35.23,7H49.57" transform="translate(0 0.34)"/><path id="Stroke-6" class="cls-3" d="M2,7H15.22V1.66H45V7h13V160H34.28v-3.4H25V160H2.19Z" transform="translate(0 0.34)"/></g></g><path id="Rectangle" class="cls-4" d="M36,162H160v-4H36Z" transform="translate(0 0.34)"/></g></g></svg>
